X: 18899
T: Incahoots
R: polka
M: 2/4
K: Amixolydian
[M:4/4]A,3/2C/ EF GF/E/ DF|E2 d2 cA GB|zA, CE GF/E/ DF|[M:2/4]E2 =C3/2B,/|
[M:4/4]A,A, CE GF/E/ DF|E2 d2 cB GB|AA, CE GF/E/ DF|E2 =C3/2B, A,2 z2||
[Ae]2 d2 cA GB|[M:5/4]A [Ae]2 [Ae] de ge ag|[M:4/4]ee dd cA GB|[M:5/4]AA, CE GF/E/ =C3/2B,/ A,2|
[Ae]2 d2 cA GB|[M:5/4]A [Ae]2 [Ae] de ge ag|[M:4/4]ee dd cA GB|AA, CE GF/E/ =C2:|

